X:1
T:Take Thou Our Minds, Dear Lord
T:Text: William H. Foulkes (1877-1962) Tune: Calvin Weiss Laufer (1874-1938)
T:10 10 10 10 HALL www.hymnary.org//text/take_thou_our_minds_dear_lord_we_humbly
T:Take Thou Our Minds, Dear Lord
T:This hymn is in the public domain.  You may freely use this score for personal and congregational worship.  If you reproduce the score, please credit Hymnary.org as the source. 
T:This hymn is in the public domain.  You may freely use this score for personal and congregational worship.  If you reproduce the score, please credit Hymnary.org as the source. 
Z:This hymn is in the public domain.  You may freely use this score for personal and congregational worship.  If you reproduce the score, please credit Hymnary.org as the source.
%%score ( 1 2 ) ( 3 4 )
L:1/8
M:4/4
K:Eb
V:1 treble nm="Piano" snm="Pno."
V:2 treble 
V:3 bass nm="Piano" snm="Pno."
V:4 bass 
V:1
 [EB]4 [EG]2 [DF]2 | E3 [DF] [EG]4 | [EA]4 [EB]2 [Ec]2 | [EB]8 | [DF]4 E2 [DF]2 | %5
w: 3~Take thou our|wills, Most High!|Hold thou full|sway;|have in our|
w: 1~Take thou our|minds, dear Lord,|we hum- bly|pray;|give us the|
w: 2~Take thou our|hearts, O Christ,|they are thine|own;|come thou with-|
 [EG]3 [EA] [EB]4 | [E=A]4 [Ec]2 [Ed]2 | [DB]8 | [DA]4 [DG]2 [DF]2 | E3 [DF] [EG]4 | %10
w: in- most souls|thy per- fect|way;|guide thou each|sa- cred hour|
w: mind of Christ|each pas- sing|day;|teach us to|know the truth|
w: in our souls|and claim thy|throne;|help us to|shed a- broad|
 [_DB]4 [DB]2 E2 | [Cc]8 | [Ae]4 [Ed]2 [Ec]2 | [EB]3 [EG] E4 | [EG]4 [B,E]2 [DF]2 | [EE]8 |] %16
w: from sel- fish|ease;|guide thou our|or- dered lives|as thou dost|please.|
w: that sets us|free;|grant us in|all our thoughts|to ho- nor|thee.|
w: thy death- less|love;|use us to|make the earth|like heaven a-|bove.|
V:2
 x8 | E3 x5 | x8 | x8 | x4 E2 x2 | x8 | x8 | x8 | x8 | E3 x5 | x6 _D2 | x8 | x8 | x4 E4 | x8 | %15
 x8 |] %16
V:3
 [E,G,]4 [E,B,]2 [B,,B,]2 | [C,G,]3 [B,,B,] [E,B,]4 | [A,,C]4 [G,,B,]2 [A,,A,]2 | [E,G,]8 | %4
 B,4 [G,B,]2 B,2 | [E,B,]3 [F,B,] [G,B,]4 | [F,C]4 [F,=A,]2 [F,A,]2 | [B,,B,]8 | [B,,B,]4 B,2 B,2 | %9
 [G,B,]3 [F,A,] [E,B,]4 | [E,G,]4 [E,G,]2 [E,B,]2 | [A,,A,]8 | [A,,C]4 [A,,B,]2 [A,,A,]2 | %13
 [E,G,]3 [E,B,] [C,=A,]4 | [B,,B,]4 [B,,G,]2 [B,,A,]2 | [E,G,]8 |] %16
V:4
 x8 | x8 | x8 | x8 | B,4 x2 B,2 | x8 | x8 | x8 | x4 B,2 A,2 | x8 | x8 | x8 | x8 | x8 | x8 | x8 |] %16

